components/icon/svg/24/action_download.svg

<?xml version="1.0" encoding="UTF-8"?>
<svg width="24px" height="24px" viewBox="0 0 24 24" version="1.1" xmlns="http://www.w3.org/2000/svg" xmlns:xlink="http://www.w3.org/1999/xlink">
    <!-- Generator: Sketch 64 (93537) - https://sketch.com -->
    <title>ic-db_action_download_24</title>
    <desc>Created with Sketch.</desc>
    <g id="Symbols:Icon" stroke="none" stroke-width="1" fill="none" fill-rule="evenodd">
        <g id="24dp-Icon/Action/Download" fill="#282D37">
            <path d="M6,22 L18,22 C19.6562,22 21,20.6562 21,19 L21,15 C21,14.4375 20.5625,14 20,14 C19.4375,14 19,14.4375 19,15 L19,19 C19,19.5625 18.5625,20 18,20 L6,20 C5.4375,20 5,19.5625 5,19 L5,15 C5,14.4375 4.5625,14 4,14 C3.4375,14 3,14.4375 3,15 L3,19 C3,20.6562 4.3438,22 6,22 Z M12,16 C12.25,16 12.5312,15.9065084 12.7188,15.7194253 L16.6875,11.7283197 C16.9062,11.5412367 17,11.2917926 17,11.0111181 C17,10.4810993 16.5625,10.0445721 16,10.0445721 C15.75,10.0445721 15.4688,10.1380637 15.2812,10.3252466 L13,12.6013741 L13,2.99777638 C13,2.43652717 12.5312,2 12,2 C11.4375,2 11,2.43652717 11,2.99777638 L11,12.6013741 L8.7188,10.3252466 C8.5,10.1380637 8.25,10.0445721 8,10.0445721 C7.4375,10.0445721 7,10.4810993 7,11.0423485 C7,11.2917926 7.0938,11.5412367 7.3125,11.7283197 L11.2812,15.7194253 C11.4688,15.9065084 11.75,16 12,16 Z" id="🎨-Color"></path>
        </g>
    </g>
</svg>

<svg width="24" height="24" xmlns="http://www.w3.org/2000/svg"><path d="M6 22h12a3 3 0 003-3v-4c0-.563-.438-1-1-1-.563 0-1 .438-1 1v4c0 .563-.438 1-1 1H6c-.563 0-1-.438-1-1v-4c0-.563-.438-1-1-1-.563 0-1 .438-1 1v4a3 3 0 003 3zm6-6c.25 0 .531-.093.719-.28l3.969-3.992a.902.902 0 00.312-.717c0-.53-.438-.966-1-.966-.25 0-.531.093-.719.28L13 12.601V2.998C13 2.437 12.531 2 12 2c-.563 0-1 .437-1 .998V12.6l-2.281-2.276a1.102 1.102 0 00-.719-.28c-.563 0-1 .436-1 .997 0 .25.094.5.313.686l3.968 3.991c.188.188.469.281.719.281z" fill="#282D37" fill-rule="evenodd"/></svg>
